icon/cg/file.svg

<svg viewBox="0 0 24 24" fill="none" xmlns="http://www.w3.org/2000/svg" height="1em" width="1em">
  <path fill-rule="evenodd" clip-rule="evenodd" d="M3 5C3 3.34315 4.34315 2 6 2H14C17.866 2 21 5.13401 21 9V19C21 20.6569 19.6569 22 18 22H6C4.34315 22 3 20.6569 3 19V5ZM13 4H6C5.44772 4 5 4.44772 5 5V19C5 19.5523 5.44772 20 6 20H18C18.5523 20 19 19.5523 19 19V9H13V4ZM18.584 7C17.9413 5.52906 16.6113 4.4271 15 4.10002V7H18.584Z" fill="currentColor"/>
</svg>

<svg width="24" height="24" fill="none" xmlns="http://www.w3.org/2000/svg"><path fill-rule="evenodd" clip-rule="evenodd" d="M3 5a3 3 0 0 1 3-3h8a7 7 0 0 1 7 7v10a3 3 0 0 1-3 3H6a3 3 0 0 1-3-3V5Zm10-1H6a1 1 0 0 0-1 1v14a1 1 0 0 0 1 1h12a1 1 0 0 0 1-1V9h-6V4Zm5.584 3A5.009 5.009 0 0 0 15 4.1V7h3.584Z" fill="currentColor"/></svg>
